Lila_HD/apps/scalable/nm-stage01-connecting01.svg

<?xml version="1.0" encoding="UTF-8" standalone="no"?>
<!-- Created with Inkscape (http://www.inkscape.org/) -->

<svg
   xmlns:dc="http://purl.org/dc/elements/1.1/"
   xmlns:cc="http://creativecommons.org/ns#"
   xmlns:rdf="http://www.w3.org/1999/02/22-rdf-syntax-ns#"
   xmlns:svg="http://www.w3.org/2000/svg"
   xmlns="http://www.w3.org/2000/svg"
   xmlns:sodipodi="http://sodipodi.sourceforge.net/DTD/sodipodi-0.dtd"
   xmlns:inkscape="http://www.inkscape.org/namespaces/inkscape"
   width="22"
   height="22"
   id="svg27665"
   version="1.1"
   inkscape:version="0.92.1 r15371"
   sodipodi:docname="nm-stage01-connecting01.svg">
  <defs
     id="defs27667" />
  <sodipodi:namedview
     id="base"
     pagecolor="#cbcdd6"
     bordercolor="#666666"
     borderopacity="1.0"
     inkscape:pageopacity="1"
     inkscape:pageshadow="2"
     inkscape:zoom="10.937588"
     inkscape:cx="4.3772667"
     inkscape:cy="10.153856"
     inkscape:document-units="px"
     inkscape:current-layer="layer1"
     showgrid="true"
     inkscape:window-width="1920"
     inkscape:window-height="1033"
     inkscape:window-x="-10"
     inkscape:window-y="25"
     inkscape:window-maximized="1"
     inkscape:snap-bbox="true"
     inkscape:bbox-paths="true"
     inkscape:bbox-nodes="true"
     inkscape:snap-bbox-edge-midpoints="true"
     inkscape:snap-bbox-midpoints="true"
     inkscape:object-paths="true"
     inkscape:snap-intersection-paths="true"
     inkscape:object-nodes="true"
     inkscape:snap-smooth-nodes="true"
     inkscape:snap-midpoints="true"
     inkscape:snap-object-midpoints="true"
     inkscape:snap-center="true"
     inkscape:snap-global="true"
     showguides="true"
     inkscape:guide-bbox="true"
     fit-margin-top="0"
     fit-margin-left="0"
     fit-margin-right="0"
     fit-margin-bottom="0"
     inkscape:showpageshadow="false">
    <inkscape:grid
       type="xygrid"
       id="grid3070"
       empspacing="5"
       visible="true"
       enabled="true"
       snapvisiblegridlinesonly="true"
       originx="-47.999653"
       originy="-0.00031276823"
       spacingx="1"
       spacingy="1" />
  </sodipodi:namedview>
  <metadata
     id="metadata27670">
    <rdf:RDF>
      <cc:Work
         rdf:about="">
        <dc:format>image/svg+xml</dc:format>
        <dc:type
           rdf:resource="http://purl.org/dc/dcmitype/StillImage" />
        <dc:title />
      </cc:Work>
    </rdf:RDF>
  </metadata>
  <g
     inkscape:label="Camada 1"
     inkscape:groupmode="layer"
     id="layer1"
     transform="translate(3316.4171,-2094.7186)">
    <path
       style="color:#000000;fill:#434a54;fill-opacity:0.6745098;fill-rule:nonzero;stroke:#f7f7f7;stroke-width:0.4;marker:none;visibility:visible;display:inline;overflow:visible;enable-background:accumulate;stroke-miterlimit:4;stroke-dasharray:none;stroke-opacity:0.67450982"
       d="M 11 3 C 8.9526 3 6.90585 3.78165 5.34375 5.34375 L 6.75 6.75 C 9.0931 4.4069 12.9069 4.4069 15.25 6.75 L 16.65625 5.34375 C 15.09425 3.78165 13.0474 3 11 3 z M 6.75 15.25 L 5.34375 16.65625 C 6.90575 18.21835 8.9526 19 11 19 C 13.0474 19 15.09415 18.21835 16.65625 16.65625 L 15.25 15.25 C 12.9069 17.5931 9.0931 17.5931 6.75 15.25 z "
       transform="translate(-3316.4171,2094.7186)"
       id="path2984" />
  </g>
</svg>

<?xml version="1.0" encoding="UTF-8"?>
<!-- Created with Inkscape (http://www.inkscape.org/) -->
<svg version="1.1" viewBox="0 0 22 22" xmlns="http://www.w3.org/2000/svg" xmlns:cc="http://creativecommons.org/ns#" xmlns:dc="http://purl.org/dc/elements/1.1/" xmlns:rdf="http://www.w3.org/1999/02/22-rdf-syntax-ns#">
<metadata>
<rdf:RDF>
<cc:Work rdf:about="">
<dc:format>image/svg+xml</dc:format>
<dc:type rdf:resource="http://purl.org/dc/dcmitype/StillImage"/>
<dc:title/>
</cc:Work>
</rdf:RDF>
</metadata>
<g transform="translate(3316.4 -2094.7)">
<path transform="translate(-3316.4 2094.7)" d="m11 3c-2.0474 0-4.0942 0.78165-5.6562 2.3438l1.4062 1.4062c2.3431-2.3431 6.1569-2.3431 8.5 0l1.4062-1.4062c-1.562-1.5621-3.6088-2.3438-5.6562-2.3438zm-4.25 12.25-1.4062 1.4062c1.562 1.5621 3.6088 2.3438 5.6562 2.3438s4.0942-0.78165 5.6562-2.3438l-1.4062-1.4062c-2.3431 2.3431-6.1569 2.3431-8.5 0z" color="#000000" fill="#434a54" fill-opacity=".67451" stroke="#f7f7f7" stroke-opacity=".67451" stroke-width=".4"/>
</g>
</svg>
